X:1
T:茉莉花
C:zhiming@vmiis.com
%%composerfont 10
M:4/4
L:1/8
Q:1/4=100
K:C
V:1
%%MIDI program 40 % violin
e2eg ac'c'a|g2ga g4     |e>deg ac'c'a |g2ga g4 |
g2g2 g2eg  |a2a2 g4     |e2de g2ed    |c2cd c4 |
edce d2>e2 |g2ac' g2>e2 |d2eg decA    |G4 A2c2 |
d2>e2 cdcA |G8          | 